X:1
T:Firenze (Casimi), 87.87
T:Firenze (Casimi), 87.87
T:Giovammaria Casimi
T:Public Domain Courtesy of the Cyber Hymnal™
C:Giovammaria Casimi
Z:Public Domain
Z:Courtesy of the Cyber Hymnal™
%%score ( 1 2 ) ( 3 4 )
L:1/8
Q:1/4=135
M:3/2
K:D
V:1 treble 
V:2 treble 
V:3 bass 
V:4 bass 
V:1
 [DF]2 [CG]2 | [DA]6 [DA]2 [DB]2 [DG]2 | [DA]4 D4 [EA]2 [Fd]2 | [Ec]6 [CA]2 [FA]2 [E^G]2 | %4
 [EA]8 [EA]2 [FB]2 | [Gc]6 [EA]2 [Dd]2 [Dc]2 | B4 [FA]4 [EA]2 [EG]2 | [DF]2 D2 [CF]4 [CE]4 | D8 |] %9
V:2
 x4 | x12 | x4 D4 x4 | x12 | x12 | x12 | (D2 E2) x8 | x2 D2 x8 | D8 |] %9
V:3
 [D,A,]2 [E,G,]2 | F,6 [D,F,]2 [G,,G,]2 [B,,G,]2 | [D,F,]4 [D,F,]4 [C,A,]2 [B,,A,]2 | %3
 [E,A,]6 [F,A,]2 [D,D]2 [E,B,]2 | [A,,C]8 [A,C]2 [A,D]2 | [A,E]6 [G,C]2 [F,A,]2 [F,A,]2 | %6
 (B,2 C2) [D,D]4 [C,A,]2 [C,A,]2 | [D,A,]2 [B,,^G,]2 [A,,A,]4 [A,,=G,]4 | [D,F,]8 |] %9
V:4
 x4 | F,6 x6 | x12 | x12 | x12 | x12 | G,4 x8 | x12 | x8 |] %9

